assets/download-link-arrow.svg

<svg width="20" height="21" viewBox="0 0 20 21" fill="none" xmlns="http://www.w3.org/2000/svg">
<path d="M19.25 18.5635C19.6642 18.5635 20 18.8993 20 19.3135C20 19.7277 19.6642 20.0635 19.25 20.0635H0.75C0.335786 20.0635 0 19.7277 0 19.3135C0 18.8993 0.335786 18.5635 0.75 18.5635H19.25Z" fill="#E04E2B"/>
<path d="M10 0C10.436 1.90593e-08 10.79 0.352181 10.79 0.786133V13.8975L16.168 8.85156C16.4683 8.56876 17.0075 8.57614 17.2842 8.88184C17.5935 9.22393 17.5587 9.69969 17.2539 9.99316L10.543 16.2783C10.4253 16.3899 10.1827 16.5 10 16.5C9.81463 16.4969 9.63904 16.463 9.45703 16.2783L2.74707 9.99316C2.43752 9.70418 2.40982 9.1916 2.71582 8.88184C3.00567 8.58849 3.53172 8.56878 3.83203 8.85156L9.21094 13.8975V0.786133C9.21094 0.35229 9.56413 0.000176586 10 0Z" fill="#E04E2B"/>
</svg>

<svg xmlns="http://www.w3.org/2000/svg" viewBox="0 0 20 21" aria-hidden="true"><path fill="#e04e2b" d="M19.25 18.564a.75.75 0 0 1 0 1.5H.75a.75.75 0 0 1 0-1.5zM10 0c.436 0 .79.352.79.786v13.112l5.378-5.046c.3-.283.84-.276 1.116.03a.785.785 0 0 1-.03 1.111l-6.711 6.285A.92.92 0 0 1 10 16.5a.7.7 0 0 1-.543-.222l-6.71-6.285a.784.784 0 0 1-.031-1.111c.29-.294.816-.313 1.116-.03l5.379 5.046V.786C9.21.352 9.564 0 10 0"/></svg>
